public/openmoji/color/1FA9C.svg

<svg id="emoji" viewBox="0 0 72 72" xmlns="http://www.w3.org/2000/svg">
  <g id="color">
    <polygon fill="#fff" points="37.7593 20.2288 43.852 20.2288 42.2034 24.6012 36.9709 24.6012 37.7593 20.2288"/>
    <polygon fill="#fff" points="34.5338 32.1991 40.1964 32.0558 38.3328 36.4999 33.3153 36.1415 34.5338 32.1991"/>
    <polygon fill="#fff" points="30.9499 44.4562 35.7523 44.3845 34.3188 47.61 30.1614 47.5383 30.9499 44.4562"/>
    <path fill="#6a462f" d="m22.2648,62.0342h-2.0576c-.5942-.0001-1.0758-.4819-1.0757-1.0761,0-.1124.0177-.2241.0523-.3311L35.3478,10.687c.1433-.4441.5568-.7451,1.0235-.7451h2.0587c.5942,0,1.0758.4818,1.0758,1.076,0,.1124-.0177.2242-.0523.3312l-16.1653,49.94c-.1433.4441-.5567.7452-1.0234.7451Z"/>
    <path fill="#a57939" d="m36.09,62.0342h-2.0576c-.5942-.0001-1.0758-.4819-1.0757-1.0761,0-.1124.0177-.2241.0523-.3311L49.1731,10.687c.1433-.4441.5567-.7452,1.0234-.7451h2.0586c.5942.0001,1.0758.4819,1.0757,1.0761,0,.1124-.0177.2241-.0523.3311l-16.165,49.94c-.1433.4442-.5568.7452-1.0235.7451Z"/>
    <path fill="#a57939" d="m47.9377,18.6777h-13.8177c-.5523,0-1-.4478-.9999-1.0001,0-.1214.0221-.2418.0653-.3553l.6387-1.6778c.1476-.3881.5197-.6446.9349-.6445h13.8173c.5523,0,1,.4478.9999,1.0001,0,.1215-.0221.2419-.0653.3554l-.6387,1.6777c-.1476.388-.5194.6444-.9345.6445Z"/>
    <path fill="#a57939" d="m44.1359,30.3166h-13.8174c-.5523,0-.9999-.4479-.9998-1.0002,0-.1214.0222-.2418.0653-.3553l.6386-1.6777c.1475-.388.5195-.6446.9346-.6446h13.8174c.5523,0,1,.4478.9999,1.0001,0,.1215-.0221.2419-.0653.3554l-.6387,1.6777c-.1475.388-.5195.6446-.9346.6446Z"/>
    <path fill="#a57939" d="m40.4338,42h-13.8174c-.5523,0-1-.4478-.9999-1.0001,0-.1215.0221-.2419.0653-.3554l.6387-1.6777c.1475-.388.5195-.6446.9346-.6446h13.8174c.5523,0,.9999.4479.9998,1.0002,0,.1214-.0222.2418-.0653.3553l-.6386,1.6778c-.1477.3879-.5195.6443-.9346.6445Z"/>
    <path fill="#a57939" d="m36.6485,53.6528h-13.8174c-.5523,0-.9999-.4479-.9998-1.0002,0-.1214.0222-.2418.0653-.3553l.6386-1.6777c.1475-.388.5195-.6446.9346-.6446h13.8174c.5523,0,1,.4478.9999,1.0001,0,.1215-.0221.2419-.0653.3554l-.6387,1.6777c-.1475.388-.5195.6446-.9346.6446Z"/>
  </g>
  <g id="line">
    <line x1="20.2069" x2="36.3713" y1="60.9583" y2="11.0176" fill="none" stroke="#000" stroke-linecap="round" stroke-linejoin="round" stroke-width="2"/>
    <line x1="34.0242" x2="50.1886" y1="60.9583" y2="11.0176" fill="none" stroke="#000" stroke-linecap="round" stroke-linejoin="round" stroke-width="2"/>
    <line x1="34.7586" x2="48.5759" y1="16" y2="16" fill="none" stroke="#000" stroke-linecap="round" stroke-linejoin="round" stroke-width="2"/>
    <line x1="30.9853" x2="44.8026" y1="27.658" y2="27.658" fill="none" stroke="#000" stroke-linecap="round" stroke-linejoin="round" stroke-width="2"/>
    <line x1="37.2559" x2="23.4385" y1="50.9739" y2="50.9739" fill="none" stroke="#000" stroke-linecap="round" stroke-linejoin="round" stroke-width="2"/>
    <line x1="27.2119" x2="41.0292" y1="39.316" y2="39.316" fill="none" stroke="#000" stroke-linecap="round" stroke-linejoin="round" stroke-width="2"/>
  </g>
</svg>

<svg width="72" height="72" viewBox="0 0 72 72" fill="none" xmlns="http://www.w3.org/2000/svg">
<path d="M22.2646 62.0342H20.207C19.6128 62.0341 19.1312 61.5523 19.1313 60.9581C19.1313 60.8457 19.149 60.734 19.1836 60.627L35.3476 10.687C35.4909 10.2429 35.9044 9.94189 36.3711 9.94189H38.4298C39.024 9.94189 39.5056 10.4237 39.5056 11.0179C39.5056 11.1303 39.4879 11.2421 39.4533 11.3491L23.288 61.2891C23.1447 61.7332 22.7313 62.0343 22.2646 62.0342Z" fill="#6A462F"/>
<path d="M36.0898 62.0342H34.0322C33.438 62.0341 32.9564 61.5523 32.9565 60.9581C32.9565 60.8457 32.9742 60.734 33.0088 60.627L49.1729 10.687C49.3162 10.2429 49.7296 9.94179 50.1963 9.94189H52.2549C52.8491 9.94199 53.3307 10.4238 53.3306 11.018C53.3306 11.1304 53.3129 11.2421 53.2783 11.3491L37.1133 61.2891C36.97 61.7333 36.5565 62.0343 36.0898 62.0342Z" fill="#A57939"/>
<path d="M47.9377 18.6777H34.12C33.5677 18.6777 33.12 18.2299 33.1201 17.6776C33.1201 17.5562 33.1422 17.4358 33.1854 17.3223L33.8241 15.6445C33.9717 15.2564 34.3438 14.9999 34.759 15H48.5763C49.1286 15 49.5763 15.4478 49.5762 16.0001C49.5762 16.1216 49.5541 16.242 49.5109 16.3555L48.8722 18.0332C48.7246 18.4212 48.3528 18.6776 47.9377 18.6777Z" fill="#A57939"/>
<path d="M44.136 30.3165H30.3186C29.7663 30.3165 29.3187 29.8686 29.3188 29.3163C29.3188 29.1949 29.341 29.0745 29.3841 28.961L30.0227 27.2833C30.1702 26.8953 30.5422 26.6387 30.9573 26.6387H44.7747C45.327 26.6387 45.7747 27.0865 45.7746 27.6388C45.7746 27.7603 45.7525 27.8807 45.7093 27.9942L45.0706 29.6719C44.9231 30.0599 44.5511 30.3165 44.136 30.3165Z" fill="#A57939"/>
<path d="M40.434 42.0001H26.6166C26.0643 42.0001 25.6166 41.5523 25.6167 41C25.6167 40.8785 25.6388 40.7581 25.682 40.6446L26.3207 38.9669C26.4682 38.5789 26.8402 38.3223 27.2553 38.3223H41.0727C41.625 38.3223 42.0726 38.7702 42.0725 39.3225C42.0725 39.4439 42.0503 39.5643 42.0072 39.6778L41.3686 41.3556C41.2209 41.7435 40.8491 41.9999 40.434 42.0001Z" fill="#A57939"/>
<path d="M36.6487 53.6529H22.8313C22.279 53.6529 21.8314 53.205 21.8315 52.6527C21.8315 52.5313 21.8537 52.4109 21.8968 52.2974L22.5354 50.6197C22.6829 50.2317 23.0549 49.9751 23.47 49.9751H37.2874C37.8397 49.9751 38.2874 50.4229 38.2873 50.9752C38.2873 51.0967 38.2652 51.2171 38.222 51.3306L37.5833 53.0083C37.4358 53.3963 37.0638 53.6529 36.6487 53.6529Z" fill="#A57939"/>
<path d="M20.207 60.9583L36.3714 11.0176" stroke="black" stroke-width="2" stroke-linecap="round" stroke-linejoin="round"/>
<path d="M34.0244 60.9583L50.1888 11.0176" stroke="black" stroke-width="2" stroke-linecap="round" stroke-linejoin="round"/>
<path d="M34.7588 16H48.5761" stroke="black" stroke-width="2" stroke-linecap="round" stroke-linejoin="round"/>
<path d="M30.9854 27.6582H44.8027" stroke="black" stroke-width="2" stroke-linecap="round" stroke-linejoin="round"/>
<path d="M37.2559 50.9736H23.4385" stroke="black" stroke-width="2" stroke-linecap="round" stroke-linejoin="round"/>
<path d="M27.2119 39.3159H41.0292" stroke="black" stroke-width="2" stroke-linecap="round" stroke-linejoin="round"/>
</svg>
